public/images/Info.svg

<svg fill="none" height="17" viewBox="0 0 17 17" width="17" xmlns="http://www.w3.org/2000/svg"><path d="m8.5 14.875c3.5208 0 6.375-2.8542 6.375-6.375 0-3.52082-2.8542-6.375-6.375-6.375-3.52082 0-6.375 2.85418-6.375 6.375 0 3.5208 2.85418 6.375 6.375 6.375z" stroke="#000" stroke-linecap="round" stroke-linejoin="round" stroke-width="1.0625"/><path d="m7.96875 7.96875h.53125v3.71875h.53125" stroke="#000" stroke-linecap="round" stroke-linejoin="round" stroke-width="1.0625"/><path d="m8.36719 6.375c.4401 0 .79687-.35677.79687-.79688 0-.4401-.35677-.79687-.79687-.79687s-.79688.35677-.79688.79687c0 .44011.35678.79688.79688.79688z" fill="#000"/></svg>

<svg width="17" height="17" viewBox="0 0 17 17" fill="none" xmlns="http://www.w3.org/2000/svg">
<path d="M8.5 14.875C12.0208 14.875 14.875 12.0208 14.875 8.5C14.875 4.97918 12.0208 2.125 8.5 2.125C4.97918 2.125 2.125 4.97918 2.125 8.5C2.125 12.0208 4.97918 14.875 8.5 14.875Z" stroke="black" stroke-width="1.0625" stroke-linecap="round" stroke-linejoin="round"/>
<path d="M7.96875 7.96875H8.5V11.6875H9.03125" stroke="black" stroke-width="1.0625" stroke-linecap="round" stroke-linejoin="round"/>
<path d="M8.36719 6.375C8.80729 6.375 9.16406 6.01823 9.16406 5.57812C9.16406 5.13802 8.80729 4.78125 8.36719 4.78125C7.92709 4.78125 7.57031 5.13802 7.57031 5.57812C7.57031 6.01823 7.92709 6.375 8.36719 6.375Z" fill="black"/>
</svg>
